X:1057
T:Balkin Hills Schottische
M:2/4
L:1/16
K:D
ag|fAfe d2A2|BGdB A2de|fAAa gfed|f2e2 e2ag|
fAfe d2A2|BGdB A2de|faga gecA|d2f2 d2:|
|:fg|adfa f2ed|BGdB A2fg|adfa gfed|f2e2 e2fg|
adfa f2ed|BGdB A2de|faga gecA|d2f2 d2:|
|:AB|d2e2 f2ed|BGdB A2de|fAAa gfed|f2e2 e2AB|
d2e2 f2ed|BGdB A2de|faga gecA|d2f2 d2:|


